!!!ONB: MCCC : IJB0088_01 : Extracted Monophonic Melody
!!!COM: Brahms, Johannes
!!!OPR: Piano Sonata No.1
!!!OMV: 1
!!!SCT: Op.1
!!!ODT: 1852///
**kern
*staff1
=1
*clefG2
*k[]
*C:
*M4/4
4.ccc
8e
4e
8f
8g
=2
4a
4g
4r
8r
8e
=3
4e
8f
8g
4a
8g
8a
=4
4cc
4a
4r
8g
8a
=5
4b
4cc
4dd
4ee
=6
32ff#
32gg
32ff#
32gg
32ff#
32gg
32ff#
32gg
32ff#
32gg
32ff#
32gg
32ff#
32gg
32ee
32ff#
4gg
8dd
8ff#
=7
4gg
8d
8f#
4g
4r
=8
4r
12d
12e
12f#
16g
16b-
16cc
16dd
16ee
16ff#
16gg
16aa
=9
4.bb-
8dd
4dd
8ee-
8ff
=10
4gg
4ff
4r
8r
8dd
=11
4dd
8ee-
8ff
4gg
8ff
8gg
=12
4gg#
4gg
4r
8ff
8gg
=13
4bb
4ccc
4ddd
4eee-
=14
4fff
2fff#
4ggg[
=15
4ggg]
2aaa
4aaa[
=16
8aaa]
8ggg
8fff
8ddd
8bb
8gg
8ff
8dd
=17
2cc
4r
8r
8c
=18
4c
8d
8e
4f
8f
8g
=19
4g
8a
8gg
4.gg
8gg
=20
8gg
8ff#
8aa
8gg
8gg
8ff#
8aa
8gg
=21
4bb-
4aa
4r
8r
8d
=22
4d
8e
8f
4g
8g
8a
=23
4a
8b
8aa
4.aa
8aa
=24
8aa
8gg#
8bb-
8aa
8aa
8gg#
8bb-
8aa
=25
4ccc
4bb
2r
=26
4eee
4eee-
4e
8f#
8g
=27
4ggg
4fff#
4aaa
4ggg
=28
1r
=29
4ee
8dd#
8cc#
4aa
8gg#
8ff#
=30
4bb
8aa
8gg#
8ff#
8gg
4gg
=31
8gg
8ff#
8ff#
8gg
8gg
8gg#
4gg#[
=32
8gg#]
8gg
8gg
8gg#
8gg#
8aa
4aa[
=33
8aa]
8bb-
8bb-
8ccc#
8ccc#
8eee
8eee
8ggg
=34
4fff#
4r
4.ff#
8ee
=35
4dd#
4r
8ff#
4fff#
8eee
=36
4eee-
4aaa
4r
4f#
=37
2.a
4f#
=38
2.a
4f#
=39
2a
4.b
8cc
=40
2cc
4b
8r
8dd
=41
2ff
4.ee
8b
=42
2dd
4cc
4r
=43
2cc
4.cc
8dd
=44
4ee
4r
2gg[
=45
4gg]
4r
2bb[
=46
4bb]
4r
2ddd[
=47
4.ddd]
8bb
4.ccc
8aa
=48
2gg
4.aa
8ff
=49
2ee
2ff[
=50
2ff]
4.ff#
8ee-
=51
2eee
4ddd
4eee
=52
4.fff
8ddd
4bb
4ccc
=53
4ddd
4ccc
4bb
4aa
=54
4gg#
8aa
8bb
4bb
4ee
=55
2eee
4ddd
4eee
=56
4.ggg
8fff
4ddd
4fff
=57
4eee
4ccc
4ddd
4bb
=58
4ccc
4aa
4bb
4ee
=59
8r
8e
8a
8ee
8r
8e
8b
8ee
=60
8r
8a
8cc
8ff
8r
8f
8b
8ff
=61
8r
8a
8ff
8bb
8r
8g#
8ee
8bb
=62
8r
8dd
8bb
8eee
8r
8cc
8aa
8eee
=63
4r
4b[
16b]
16cc
16b
16a
16b
16cc
16dd
16ee
=64
4gg
4ff
2r
=65
4r
4b[
16b]
16cc
16b
16a#
16b
16cc
16dd
16ee
=66
4gg
4ff
4ccc
4bb-
=67
1r
=68
4cc
4b-
2r
=69
4ccc
4bb-
4cccc
4bbb-[
=70
8bbb-]
8aaa
8ggg#
8ggg
8fff#
8fff
8eee
8eee-
=71
8ddd
8ccc#
8ccc
8bb
8bb-
8aa
8gg#
8gg
=72
8ff#
8ff
8ee
8ee-
8dd
8cc#
8cc
8b
=73
4r
4cc
4ee-
4aa
=74
4r
4ff
4ee
4g#
=75
2aa
4gg
4aa
=76
4.bb-
8gg
4ee
4ff
=77
4gg
4ff
4ee
4dd
=78
4.cc#
8dd
4ee
4r
=79
4.ccc#
8ddd
4eee
4r
=80
4.cc
8dd
2ee[
=81
4.ee]
8ff
2gg[
=82
4.gg]
8aa
2bb[
=83
4.bb]
8ccc
2ddd[
=84
4.ddd]
8eee
2fff[
=85
8fff]
8eee
8fff
8eee
8fff
8eee
8fff
8eee
=86
16ffff
16dddd
16bbb
16ggg
16fff
16ddd
16bb
16gg
16fff
16ddd
16bb
16gg
16ff
16dd
16b
16g
=87
16fff
16ddd
16bb
16gg
16ff
16dd
16b
16g
24f
24d
24B
24G
24B
24d
24f
24g
24dd
24ff
24gg
24bb
=88
4.ccc
8e
4e
8f
8g
=89
4a
4g
4r
8r
8e
=90
4e
8f
8g
4a
8g
8a
=91
4cc
4a
4r
8g
8a
=92
4b
4cc
4dd
4ee
=93
32ff#
32gg
32ff#
32gg
32ff#
32gg
32ff#
32gg
32ff#
32gg
32ff#
32gg
32ff#
32gg
32ee
32ff#
4gg
8dd
8ff#
=94
4gg
8d
8f#
4g
4r
=95
4r
12d
12e
12f#
16g
16b-
16cc
16dd
16ee
16ff#
16gg
16aa
=96
4.bb-
8dd
4dd
8ee-
8ff
=97
4gg
4ff
4r
8r
8dd
=98
4dd
8ee-
8ff
4gg
8ff
8gg
=99
4gg#
4gg
4r
8ff
8gg
=100
4bb
4ccc
4ddd
4eee-
=101
4fff
2fff#
4ggg[
=102
4ggg]
2aaa
4aaa[
=103
8aaa]
8ggg
8fff
8ddd
8bb
8gg
8ff
8dd
=104
2cc
4r
8r
8c
=105
4c
8d
8e
4f
8f
8g
=106
4g
8a
8gg
4.gg
8gg
=107
8gg
8ff#
8aa
8gg
8gg
8ff#
8aa
8gg
=108
4bb-
4aa
4r
8r
8d
=109
4d
8e
8f
4g
8g
8a
=110
4a
8b
8aa
4.aa
8aa
=111
8aa
8gg#
8bb-
8aa
8aa
8gg#
8bb-
8aa
=112
4ccc
4bb
2r
=113
4eee
4eee-
4e
8f#
8g
=114
4ggg
4fff#
4aaa
4ggg
=115
1r
=116
4ee
8dd#
8cc#
4aa
8gg#
8ff#
=117
4bb
8aa
8gg#
8ff#
8gg
4gg
=118
8gg
8ff#
8ff#
8gg
8gg
8gg#
4gg#[
=119
8gg#]
8gg
8gg
8gg#
8gg#
8aa
4aa[
=120
8aa]
8bb-
8bb-
8ccc#
8ccc#
8eee
8eee
8ggg
=121
4fff#
4r
4.ff#
8ee
=122
4dd#
4r
8ff#
4fff#
8eee
=123
4eee-
4aaa
4r
4f#
=124
2.a
4f#
=125
2.a
4f#
=126
2a
4.b
8cc
=127
2cc
4b
8r
8dd
=128
2ff
4.ee
8b
=129
2dd
4cc
4r
=130
2cc
4.cc
8dd
=131
4ee
4r
2gg[
=132
4gg]
4r
2bb[
=133
4bb]
4r
2ddd[
=134
4.ddd]
8bb
4.ccc
8aa
=135
2gg
4.aa
8ff
=136
2ee
2ff[
=137
2ff]
4.ff#
8ee-
=138
2eee
4ddd
4eee
=139
4.fff
8ddd
4bb
4ccc
=140
4ddd
4ccc
4bb
4aa
=141
4gg#
8aa
8bb
4bb
4ee
=142
2eee
4ddd
4eee
=143
4.ggg
8fff
4ddd
4fff
=144
4eee
4ccc
4ddd
4bb
=145
4ccc
4aa
4bb
4ee
=146
8r
8e
8a
8ee
8r
8e
8b
8ee
=147
8r
8a
8cc
8ff
8r
8f
8b
8ff
=148
8r
8a
8ff
8bb
8r
8g#
8ee
8bb
=149
8r
8dd
8bb
8eee
8r
8cc
8aa
8eee
=150
4r
4b[
16b]
16cc
16b
16a
16b
16cc
16dd
16ee
=151
4gg
4ff
2r
=152
4r
4b[
16b]
16cc
16b
16a#
16b
16cc
16dd
16ee
=153
4gg
4ff
4ccc
4bb-
=154
1r
=155
4cc
4b-
2r
=156
4ccc
4bb-
4cccc
4bbb-[
=157
8bbb-]
8aaa
8ggg#
8ggg
8fff#
8fff
8eee
8eee-
=158
8ddd
8ccc#
8ccc
8bb
8bb-
8aa
8gg#
8gg
=159
8ff#
8ff
8ee
8ee-
8dd
8cc#
8cc
8b
=160
4r
4cc
4ee-
4aa
=161
4r
4ff
4ee
4g#
=162
2aa
4gg
4aa
=163
4.bb-
8gg
4ee
4ff
=164
4gg
4ff
4ee
4dd
=165
4.cc#
8dd
4ee
4r
=166
4.ccc#
8ddd
4eee
4r
=167
4.cc
8dd
2ee[
=168
4.ee]
8ff
2gg[
=169
4.gg]
8aa
2bb[
=170
4.bb]
8ccc
2ddd[
=171
4.ddd]
8eee
2fff[
=172
8fff]
8eee
8fff
8eee
8fff
8eee
8fff
8eee
=173
16ffff
16dddd
16bbb
16ggg
16fff
16ddd
16bb
16gg
16fff
16ddd
16bb
16gg
16ff
16dd
16b
16g
=174
16ff
16dd
16b
16g
16f
16d
16B
16G
16f
16d
16B
16G
4r
=175
8g
8g[
8g]
8G
2r
=176
2gg
4ff
4gg
=177
4.gg#
8ff
4dd
4ee-
=178
4ff
4ee-
4dd
4cc
=179
4.b
8cc
4dd
4r
=180
2gg
4ff
4gg
=181
4.bb-
8gg#
4ff
4gg#
=182
4gg
4ee-
4ff
4dd
=183
2ee-
2cc#
=184
2b
2r
=185
2ee-
2cc#
=186
2.b
4r
=187
8bb-
4bb-
8bb-[
8bb-]
4bb-
8bb-[
=188
8bb-]
4bb-
8bb-[
8bb-]
4bb-
8bb-[
=189
8bb-]
4ddd
8eee-[
8eee-]
4fff
8ggg
=190
8ggg#
4ggg#
8ggg#[
8ggg#]
4ggg#
8aaa
=191
2bbb-
4ggg#
4aaa#
=192
4.bbb
8ggg#
4eee-
4bbb
=193
2cccc
4bbb-
4cccc
=194
4.cccc#
8ggg#
4fff
4cccc#
=195
2dddd
4cccc
4dddd
=196
8ffff
8eeee-
8cccc
8aaa
8fff#
8eee-
8ccc
8aa
=197
8ff#
8ee-
8cc
8a
8f#
8e-
4r
=198
8r
8G
8c
8e-
8f#
8g
8cc
8ee-
=199
8ff#
8gg
8r
8eee-
4eee-
8ddd
8ccc
=200
8r
8g
8cc#
8ee
8ff#
8gg
8ccc#
8eee
=201
8fff#
8ggg
8r
8eee
4eee
8ddd
8ccc#
=202
8r
8f
8g#
8fff
4fff
8eee
8ddd
=203
4ggg#
8ggg
8fff
4dddd
8cccc
8bbb
=204
4ffff
8eeee-
8dddd
8cccc
8bbb
8aaa
8ggg#
=205
8fff#
8ggg
8r
8ggg#
4ggg#
8ggg
8fff
=206
8ff#
8gg
8r
8ggg#
4ggg#
8ggg
8fff
=207
8gg#
8aa
8r
8bbb
4bbb
8fff#
8bb
=208
8bb
8ccc#
8r
8dddd
4dddd
8bbb
8fff#
=209
4eeee
4r
4dddd
4r
=210
4cccc#
4r
4bbb-
4r
=211
4r
12F#
12B
12f#
8f#
8ff#
8b-
8b
=212
4r
12F#
12B
12f#
8f#
8ff#
8cc#
8dd
=213
4r
12b
12bb
12bb
12bbb
12aaa#
12cccc#
12bbb
12ggg
12eee
=214
12bb-
12ccc#
12bb-
24gg
24bb-[
12bb-]
12gg
12gg
12bb-
12gg
24ee
24gg[
12gg]
12ee
=215
2dd
4.ee
8ff#
=216
2ff#
4.gg
8aa
=217
4ccc#
8r
8ddd
4ddd
8eee
16fff[
16fff]
=218
4fff
8ggg
8ggg#
4ggg#
4cccc#
=219
4r
12A
12f#
12cc#
8cc#
8ccc#
8ff
8ff#
=220
4r
12c#
12f#
12cc#
8cc#
8ccc#
8gg#
8aa
=221
4e
12f#
12ff#
12ff#
12fff#
12fff
12ggg
12fff#
12ccc
12aa
=222
12ff#
12aa
12ff#
12gg
12bb
12ccc
12aa
12ccc
12aa
12bb
12ddd
12eee-
=223
2r
4ccc
8ddd
8eee-
=224
2r
4ccc
8ddd
8eee-
=225
1r
=226
4eee
8ddd
8ccc
4ccc
8bb
8aa
=227
4aa
8bb
8ccc
4ccc
8ddd
8eee
=228
4ggg
8fff#
8eee
4eee
8ddd
8ccc
=229
4ccc
8ddd
8eee
4eee
8fff#
8ggg
=230
4bbb
8aaa
8ggg
4ggg
8fff#
8eee
=231
4eee
8fff#
8ggg
4ggg
8aaa
8bbb
=232
*M2/4
4bbb
8aaa
8ggg
=233
2r
=234
*M4/4
4gg
8ff#
8ee
2r
=235
*M2/4
4bbb
8aaa
8ggg
=236
2r
=237
*M4/4
4gg
8ff#
8ee
2r
=238
4eeee
8cccc
8aaa
4ggg
8eee
8ccc
=239
4aa
8gg
8ee
4cc
8a
8g
=240
[1e
=241
2e]
2d
=242
2b
4.cc
8dd
=243
2gg
4.aa
8bb
=244
2bb
4aa
8r
8ccc
=245
2eee
4ddd
4r
=246
2g
4.a
8b
=247
2ee
4.ff#
8gg
=248
2bb
4bb-
8r
8eee
=249
2ccc#
4ddd
4r
=250
4r
12a
12aa
12aa
12aaa
12ggg#
12bbb
12aaa
12fff#
12aa
=251
4r
12a
12aa
12aa
12aaa
12ggg#
12bbb
12aaa
12eee
12aa
=252
2a
4.f#
8e
=253
2a
4.f#
8e
=254
4r
12a
12aa
12aa
12aaa
12ggg#
12bbb
12aaa
12fff#
12aa
=255
4r
12a
12aa
12aa
12aaa
12ggg#
12bbb
12aaa
12eee
12aa
=256
4r
12cc#
12ccc#
12ccc#
12bbb
12aaa#
12cccc#
12bbb
12ggg
12eee
=257
4r
12cc#
12ccc#
12ccc#
12bbb
12aaa#
12cccc#
12bbb
12ggg
12eee
=258
4r
12cc#
12ccc#
12ccc#
12bbb-
12aaa
12cccc
12bbb-
12ggg
12eee
=259
12r
12ccc#
12cccc
12bbb
12ggg
12eee
12r
12ccc#
12cccc
12bbb-
12ggg
12eee
=260
12bbb-
12ggg
12eee
12bbb-
12ggg
12eee
12bbb-
12ggg
12eee
12bbb-
12ggg
12eee
=261
12bbb-
12ggg
12eee
12bbb-
12ggg
12eee
12bbb-
12ggg
12eee
12bbb-
12ggg
12eee
=262
4.bbb-
8e
4e
8f
8g
=263
4a
4g
4r
8r
8e
=264
4e
8f
8g
4a
8g
8a
=265
4b-
4a
4r
8g
8a
=266
4b
4cc
4dd
4ee
=267
32ff#
32gg
32ff#
32gg
32ff#
32gg
32ff#
32gg
32ff#
32gg
32ff#
32gg
32ff#
32gg
32ee
32ff#
4gg
8dd
8ff#
=268
4gg
8d
8f#
4g
4r
=269
16G
16B
16c
16d
16e
16f#
16g
16a
16b
16dd
16ee
16ff#
16gg
16bb
16ccc
16ddd
=270
4.eee-
8e-
4e-
8f
8g
=271
4g#
4g#
4r
4gg#
=272
4.fff
8f
4f
8f#
8g#
=273
4a
4a
4r
4aa
=274
4.fff#
8f#
4f#
8g
8a
=275
4b-
4a
4r
4cc#
=276
4dd
4a
4.aa
8gg
=277
4ff#
4aa
4.aaa
8aaa
=278
4ggg#
4b
4.bb
8aa
=279
4gg#
4bb
4bbb
4bbb
=280
4cccc
4cccc
4cccc
4cccc
=281
4cccc
4cccc
4bbb-
4bbb-
=282
4aaa
4aaa
4.ggg
8ff#
=283
8fff#
8dd
8ddd
8a
8aa
8f#
8ff#
8d
=284
4dd
4r
4r
4a
=285
2cc
4r
4a
=286
2cc
4r
4a
=287
2cc
4.dd
8ee-
=288
2ee-
4dd
8r
8ff
=289
2gg#
4.gg
8dd
=290
2ff
4ee-
4r
=291
2ee-
4.ee-
8ff
=292
4gg
4r
2bb-[
=293
4bb-]
4r
2ddd[
=294
4ddd]
8r
16r
32r
32bb-
2fff[
=295
4.fff]
8ddd
4.eee-
8ccc
=296
2bb-
4.ccc
8gg#
=297
2ff##
2gg#[
=298
2gg#]
4.aa
8ff#
=299
2ggg
4fff
4ggg
=300
4.ggg#
8fff
4ddd
4eee-
=301
4fff
4eee-
4ddd
4ccc
=302
4.bb
8ccc
4ddd
4r
=303
2ggg
4fff
4ggg
=304
4.bbb-
8ggg#
4fff
4ggg#
=305
4ggg
4eee-
4fff
4ddd
=306
4eee-
4ccc
4ddd
4gg
=307
8r
8g
8cc
8gg
8r
8g
8dd
8gg
=308
8r
8cc
8ee-
8gg#
8r
8g#
8dd
8gg#
=309
8r
8cc
8gg#
8ddd
8r
8b
8gg
8ddd
=310
8r
8ff
8ddd
8ggg
8r
8ee-
8ccc
8ggg
=311
4r
4dd[
16dd]
16ee-
16dd
16cc
16dd
16ee-
16ff
16gg
=312
4bb-
4gg#
2r
=313
4r
4dd
16dd
16ee-
16dd
16cc#
16dd
16ee-
16ff
16gg
=314
4bb-
4gg#
4eee-
4ccc#
=315
1r
=316
4ee-
4cc#
4eee-
4ccc#
=317
4eee-
4ccc#
4eeee-
4cccc#[
=318
8cccc#]
8cccc
8bbb
8bbb-
8aaa
8ggg#
8ggg
8fff#
=319
8fff
8eee
8eee-
8ddd
8ccc#
8ccc
8bb
8bb-
=320
8aa
8gg#
8gg
8ff#
8ff
8ee
8ee-
8dd
=321
4r
4ee-
4ff#
4ccc
=322
4r
4gg#
4gg
4b
=323
2ccc
4bb-
4bb#
=324
4.ccc#
8bb-
4gg
4gg#
=325
4bb-
4gg#
4gg
4ff
=326
4.ee
8ff
4gg
4ccc
=327
2ccc#
4bb
4ccc#
=328
4.ddd
8bb
4gg#
4ccc#
=329
2fff#
4eee
4fff#
=330
4.ggg
8eee
4ccc#
4fff#
=331
4bbb
8aaa
8bbb
8cccc
8aaa
8fff#
8ggg
=332
8aaa
8fff#
8ccc
8ddd
8eee-
8ccc
8aa
8bb
=333
8ccc
8aa
8ff#
8gg
8aa
8ff#
8r
8gg
=334
8r
8aa
8r
8aa
8r
8ccc
8r
8ccc#
=335
2bbb-
4aaa
8r
8ccc#
=336
2bbb-
4aaa
8r
8ddd
=337
2bbb
2cccc#
=338
2dddd
2ffff
=339
4.cccc
8eee
4eee
8fff
8ggg
=340
4aaa
4aaa
4ggg
8cccc
8dddd
=341
4eeee
4eeee
4aaa
8dddd
8eeee
=342
4ffff
8dddd
8cccc
4bbb
8cccc
8dddd
=343
4eeee
8cccc
8bbb
4aaa
8bbb
8cccc
=344
4dddd
8bbb
8aaa
4ggg
8fff
8eee
=345
4eee-
2ccc
4aa
=346
4gg
12g
12gg
12ff
12bb-
12fff
12eee
12b-
12ff
12ee
=347
12a
12ee
12dd
12aa
12eee
12ddd
12ccc
12ggg
12fff#
12cc
12gg
12ff#
=348
12cc
12aa
12gg
12ccc
12aaa
12ggg
12ddd
12bbb
12aaa
12dd
12bb
12aa
=349
12dd
12bb
12aa
12ddd
12bbb
12aaa
12bbb
12eeee
12dddd
12bb
12eee
12ddd
=350
4ccc
8.cc
16cc
4cc#
4ccc#
=351
4ddd
8.dd
16dd
4ee
4eee
=352
4fff
8.ff
16ff
4aa
4aaa[
=353
4aaa]
2aaa
4ggg[
=354
4ggg]
2fff
4bb
=355
4ccc
8r
8ee
4ee
8ff
8gg
=356
4aa
4gg
2r
=357
2c
4d
4e
=358
2f[
2f]
=359
1e
==
*-
